X:89
T:Rondeau de M. Figeac
R:rondeau
C:trad.
A:Landes
O:France
Z:S. Piron
M:6/8
L:1/8
Q:1/4=170
K:G
DGBAdc|BABGBG|DGBAdc|BABG3:|
|:B2cded|dcBc2e|A2Bced|1cBAB2G:|2cBAG3||
